flaticon/online-marketing/shopping-cart.svg

<svg xmlns="http://www.w3.org/2000/svg" width="32" height="32" viewBox="0 0 24 24">
    <path d="M 23.652344 4.277344 C 23.566406 4.183594 23.445312 4.128906 23.316406 4.128906 L 4.359375 4.128906 L 4.132812 2.257812 C 3.976562 0.96875 2.882812 0 1.589844 0 L 0.683594 0 C 0.4375 0 0.234375 0.203125 0.234375 0.449219 C 0.234375 0.699219 0.4375 0.902344 0.683594 0.902344 L 1.589844 0.902344 C 2.429688 0.902344 3.136719 1.53125 3.238281 2.363281 L 5.070312 17.597656 C 5.234375 18.933594 6.371094 19.945312 7.71875 19.945312 L 9.472656 19.945312 L 9.28125 20.308594 C 9.136719 20.273438 8.988281 20.253906 8.832031 20.253906 C 7.796875 20.253906 6.957031 21.09375 6.957031 22.125 C 6.957031 23.160156 7.796875 24 8.832031 24 C 9.863281 24 10.703125 23.160156 10.703125 22.125 C 10.703125 21.570312 10.460938 21.074219 10.078125 20.730469 L 10.492188 19.945312 L 19.785156 19.945312 L 19.59375 20.308594 C 19.449219 20.273438 19.300781 20.253906 19.144531 20.253906 C 18.109375 20.253906 17.269531 21.09375 17.269531 22.125 C 17.269531 23.160156 18.109375 24 19.144531 24 C 20.175781 24 21.019531 23.160156 21.019531 22.125 C 21.019531 21.570312 20.773438 21.074219 20.390625 20.730469 L 20.804688 19.945312 L 21.179688 19.945312 C 21.429688 19.945312 21.628906 19.742188 21.628906 19.496094 C 21.628906 19.246094 21.429688 19.042969 21.179688 19.042969 L 7.71875 19.042969 C 6.824219 19.042969 6.074219 18.375 5.964844 17.488281 L 5.714844 15.417969 L 22.066406 15.417969 C 22.292969 15.417969 22.484375 15.246094 22.511719 15.019531 L 23.761719 4.632812 C 23.777344 4.503906 23.738281 4.375 23.652344 4.277344 Z M 9.804688 22.125 C 9.804688 22.664062 9.367188 23.097656 8.832031 23.097656 C 8.292969 23.097656 7.859375 22.664062 7.859375 22.125 C 7.859375 21.589844 8.292969 21.152344 8.832031 21.152344 C 8.832031 21.152344 8.835938 21.152344 8.835938 21.152344 L 8.433594 21.914062 C 8.316406 22.136719 8.402344 22.410156 8.621094 22.523438 C 8.6875 22.558594 8.761719 22.578125 8.832031 22.578125 C 8.992188 22.578125 9.148438 22.488281 9.230469 22.335938 L 9.632812 21.574219 C 9.738281 21.730469 9.804688 21.921875 9.804688 22.125 Z M 20.117188 22.125 C 20.117188 22.664062 19.679688 23.097656 19.144531 23.097656 C 18.609375 23.097656 18.171875 22.664062 18.171875 22.125 C 18.171875 21.589844 18.609375 21.152344 19.144531 21.152344 C 19.144531 21.152344 19.148438 21.152344 19.148438 21.152344 L 18.746094 21.914062 C 18.628906 22.136719 18.714844 22.410156 18.933594 22.523438 C 19 22.558594 19.074219 22.578125 19.144531 22.578125 C 19.304688 22.578125 19.460938 22.488281 19.542969 22.335938 L 19.945312 21.574219 C 20.054688 21.730469 20.117188 21.921875 20.117188 22.125 Z M 11.839844 5.027344 L 15.433594 5.027344 L 15.167969 14.515625 L 12.105469 14.515625 Z M 11.203125 14.515625 L 8.601562 14.515625 L 7.859375 5.027344 L 10.9375 5.027344 Z M 16.335938 5.027344 L 19.414062 5.027344 L 18.671875 14.515625 L 16.070312 14.515625 Z M 4.464844 5.027344 L 6.957031 5.027344 L 7.695312 14.515625 L 5.609375 14.515625 Z M 21.664062 14.515625 L 19.578125 14.515625 L 20.316406 5.027344 L 22.808594 5.027344 Z M 21.664062 14.515625"/>
</svg>

<svg xmlns="http://www.w3.org/2000/svg" width="32" height="32" viewBox="0 0 24 24">
    <path d="M23.652 4.277a.455.455 0 0 0-.336-.148H4.36l-.226-1.871A2.565 2.565 0 0 0 1.59 0H.684a.452.452 0 0 0 0 .902h.906c.84 0 1.547.63 1.648 1.461L5.07 17.598a2.674 2.674 0 0 0 2.649 2.347h1.754l-.192.364a1.875 1.875 0 0 0-2.324 1.816c0 1.035.84 1.875 1.875 1.875a1.875 1.875 0 0 0 1.246-3.27l.414-.785h9.293l-.191.364a1.875 1.875 0 0 0-2.324 1.816 1.875 1.875 0 0 0 3.75 0c0-.555-.247-1.05-.63-1.395l.415-.785h.375a.45.45 0 0 0 .449-.449.45.45 0 0 0-.45-.453H7.72a1.768 1.768 0 0 1-1.754-1.555l-.25-2.07h16.351a.451.451 0 0 0 .446-.398l1.25-10.387a.454.454 0 0 0-.11-.356zM9.805 22.125a.973.973 0 1 1-.973-.973h.004l-.402.762a.45.45 0 0 0 .187.61c.066.035.14.054.211.054.16 0 .316-.09.398-.242l.403-.762a.99.99 0 0 1 .172.551zm10.312 0a.973.973 0 1 1-.972-.973h.003l-.402.762a.45.45 0 0 0 .188.61c.066.035.14.054.21.054.16 0 .317-.09.399-.242l.402-.762a.96.96 0 0 1 .172.551zM11.84 5.027h3.594l-.266 9.489h-3.063zm-.637 9.489H8.602l-.743-9.489h3.079zm5.133-9.489h3.078l-.742 9.489H16.07zm-11.871 0h2.492l.738 9.489H5.61zm17.2 9.489h-2.087l.738-9.489h2.493zm0 0"/>
</svg>
